svg/plug.svg

<svg xmlns="http://www.w3.org/2000/svg" viewBox="0 0 48 64" enable-background="new 0 0 48 64"><style type="text/css">.st0{fill:#333333;}</style><title>plug</title><desc>Created with Sketch.</desc><path class="st0" d="M44 24h-4v-22c0-1.1-.9-2-2-2h-4c-1.1 0-2 .9-2 2v22h-16v-22c0-1.1-.9-2-2-2h-4c-1.1 0-2 .9-2 2v22h-4c-2.2 0-4 1.8-4 4v12c0 8.8 7.2 16 16 16v4c0 2.2 1.8 4 4 4h8c2.2 0 4-1.8 4-4v-4c8.8 0 16-7.2 16-16v-12c0-2.2-1.8-4-4-4zm-11.9 17.1l-7.4 14.7s0 .1-.1.1c-.1.2-.3.3-.4.3v-11.899999999999999h-7.3c-.6 0-.8-.4-.6-.9l7.4-14.7c.1-.3.3-.4.5-.4v12h7.3c.6-.1.8.3.6.8z"/></svg>

<?xml version="1.0" encoding="utf-8"?>
<!-- Generator: Adobe Illustrator 21.0.0, SVG Export Plug-In . SVG Version: 6.00 Build 0)  -->
<svg version="1.1" id="Layer_1" xmlns="http://www.w3.org/2000/svg" xmlns:xlink="http://www.w3.org/1999/xlink" x="0px" y="0px"
	 viewBox="0 0 48 64" style="enable-background:new 0 0 48 64;" xml:space="preserve">
<style type="text/css">
	.st0{fill:#333333;}
</style>
<title>plug</title>
<desc>Created with Sketch.</desc>
<path class="st0" d="M44,24h-4V2c0-1.1-0.9-2-2-2h-4c-1.1,0-2,0.9-2,2v22H16V2c0-1.1-0.9-2-2-2h-4C8.9,0,8,0.9,8,2v22H4
	c-2.2,0-4,1.8-4,4v12c0,8.8,7.2,16,16,16v4c0,2.2,1.8,4,4,4h8c2.2,0,4-1.8,4-4v-4c8.8,0,16-7.2,16-16V28C48,25.8,46.2,24,44,24z
	 M32.1,41.1l-7.4,14.7c0,0,0,0.1-0.1,0.1c-0.1,0.2-0.3,0.3-0.4,0.3V56V44.3h-7.3c-0.6,0-0.8-0.4-0.6-0.9l7.4-14.7
	c0.1-0.3,0.3-0.4,0.5-0.4v12h7.3C32.1,40.2,32.3,40.6,32.1,41.1z"/>
</svg>
